www/images/pieces/pixel/wR.svg

<svg xmlns="http://www.w3.org/2000/svg" viewBox="0 -0.5 16 16" shape-rendering="crispEdges"><path stroke="#000" d="M3 1h3m1 0h6M3 2h1m1 0h1m1 0h1m4 0h1M3 3h1m1 0h3m4 0h1M3 4h1m8 0h1M3 5h10M4 6h1m6 0h1M5 7h6M5 8h1m4 0h1M5 9h1m4 0h1m-6 1h1m4 0h1m-7 1h1m6 0h1m-9 1h10M2 13h1m10 0h1M2 14h12"/><path stroke="#fdfdfd" d="M4 2h1m0 4h1m-1 5h1m-3 2h3"/><path stroke="#c1c1c1" d="M8 2h3M8 3h3M5 4h5M7 6h2M7 8h2M7 9h2m-2 1h2m-2 1h2m-2 2h3"/><path stroke="#a7a7a7" d="M11 2h1m-1 1h1m-2 1h2M9 6h2M9 8h1M9 9h1m-1 1h1m-1 1h2m-1 2h3"/><path stroke="#e1e1e1" d="M4 3h1M4 4h1m1 2h1M6 8h1M6 9h1m-1 1h1m-1 1h1m-1 2h1"/></svg>

<svg xmlns="http://www.w3.org/2000/svg" viewBox="0 -0.5 16 16" shape-rendering="crispEdges">
<metadata>Made with Pixels to Svg https://codepen.io/shshaw/pen/XbxvNj</metadata>
<path stroke="#000000" d="M3 1h3M7 1h6M3 2h1M5 2h1M7 2h1M12 2h1M3 3h1M5 3h3M12 3h1M3 4h1M12 4h1M3 5h10M4 6h1M11 6h1M5 7h6M5 8h1M10 8h1M5 9h1M10 9h1M5 10h1M10 10h1M4 11h1M11 11h1M3 12h10M2 13h1M13 13h1M2 14h12" />
<path stroke="#fdfdfd" d="M4 2h1M5 6h1M5 11h1M3 13h3" />
<path stroke="#c1c1c1" d="M8 2h3M8 3h3M5 4h5M7 6h2M7 8h2M7 9h2M7 10h2M7 11h2M7 13h3" />
<path stroke="#a7a7a7" d="M11 2h1M11 3h1M10 4h2M9 6h2M9 8h1M9 9h1M9 10h1M9 11h2M10 13h3" />
<path stroke="#e1e1e1" d="M4 3h1M4 4h1M6 6h1M6 8h1M6 9h1M6 10h1M6 11h1M6 13h1" />
</svg>
